X:1
T:All Through the Night  "allthru.bmw"
M:C
L:1/8
Q:80
C:St. Ann's of Hampton Version
S:March
K:HP
|: A2 | \
{Gdc}d3c{g}B{Gdc}d3 | \
{gef}e3d{gcd}c2{d}A2 |
{g}B4{GdG}c3{GdG}c | \
{Gdc}d4{gdc}d3 :| \
{gf}g2f2{gf}g2a2 |
B3a{f}g2f2 | \
{gf}g3f{gef}e2d2 | \
{g}f3e{Gdc}d2c2|]
